_inc/systems/logos/auto-verticalarcade.svg

<?xml version="1.0" encoding="utf-8"?>
<svg version="1.1" id="vertical" x="0px" y="0px" viewBox="0 0 200 40" xmlns="http://www.w3.org/2000/svg">
  <path d="M 74.121 1.25 L 80.151 1.25 L 72.441 20 L 64.101 20 L 62.991 1.25 L 69.321 1.25 L 69.321 13.16 L 69.591 13.16 Z M 91.521 12.92 L 85.821 12.92 L 85.431 15.2 L 92.421 15.2 L 91.581 20 L 78.891 20 L 82.191 1.25 L 94.731 1.25 L 93.171 6.05 L 87.021 6.05 L 86.601 8.57 L 92.301 8.57 Z M 110.331 20 L 104.061 20 L 102.681 14.42 L 101.451 14.42 L 100.491 20 L 94.791 20 L 98.091 1.25 L 107.091 1.25 C 110.511 1.25 112.221 2.78 112.221 5.84 C 112.221 7.1 112.031 8.3 111.651 9.44 C 110.951 11.6 109.851 13.04 108.351 13.76 Z M 102.921 6.05 L 102.261 9.8 L 103.581 9.8 C 104.261 9.8 104.776 9.725 105.126 9.575 C 105.476 9.425 105.716 8.995 105.846 8.285 C 105.976 7.575 106.041 7.14 106.041 6.98 C 106.041 6.58 105.886 6.325 105.576 6.215 C 105.266 6.105 104.761 6.05 104.061 6.05 Z M 127.791 6.05 L 123.651 6.05 L 121.221 20 L 115.521 20 L 117.951 6.05 L 113.841 6.05 L 114.711 1.25 L 128.661 1.25 Z M 127.52 20 L 130.82 1.25 L 136.52 1.25 L 133.22 20 Z M 149.66 14.63 L 149.18 19.67 C 147.9 20.19 146.28 20.45 144.32 20.45 C 141.8 20.45 139.995 19.96 138.905 18.98 C 137.815 18 137.27 16.49 137.27 14.45 C 137.27 13.59 137.41 12.32 137.69 10.64 C 138.29 7.2 139.325 4.7 140.795 3.14 C 142.265 1.58 144.59 0.8 147.77 0.8 C 148.51 0.8 149.355 0.875 150.305 1.025 C 151.255 1.175 151.95 1.36 152.39 1.58 L 150.71 6.17 C 149.53 5.89 148.425 5.75 147.395 5.75 C 146.365 5.75 145.63 5.85 145.19 6.05 C 144.75 6.25 144.48 6.65 144.38 7.25 L 143 15.11 C 143.72 15.27 144.46 15.35 145.22 15.35 C 146.84 15.35 148.32 15.11 149.66 14.63 Z M 156.02 20 L 150.02 20 L 157.91 1.25 L 166.73 1.25 L 168.05 20 L 162.02 20 L 161.9 17.03 L 157.19 17.03 Z M 161.15 7.01 L 159.05 12.26 L 161.45 12.26 L 161.45 7.01 Z M 181.43 20 L 170.03 20 L 173.33 1.25 L 179.03 1.25 L 176.57 15.2 L 182.27 15.2 Z" style="white-space: pre; fill: rgb(255, 255, 255);"/>
  <path d="M 66.01 39.587 L 60.01 39.587 L 67.9 20.837 L 76.72 20.837 L 78.04 39.587 L 72.01 39.587 L 71.89 36.617 L 67.18 36.617 Z M 71.14 26.597 L 69.04 31.847 L 71.44 31.847 L 71.44 26.597 Z M 95.56 39.587 L 89.29 39.587 L 87.91 34.007 L 86.68 34.007 L 85.72 39.587 L 80.02 39.587 L 83.32 20.837 L 92.32 20.837 C 95.74 20.837 97.45 22.367 97.45 25.427 C 97.45 26.687 97.26 27.887 96.88 29.027 C 96.18 31.187 95.08 32.627 93.58 33.347 Z M 88.15 25.637 L 87.49 29.387 L 88.81 29.387 C 89.49 29.387 90.005 29.312 90.355 29.162 C 90.705 29.012 90.945 28.582 91.075 27.872 C 91.205 27.162 91.27 26.727 91.27 26.567 C 91.27 26.167 91.115 25.912 90.805 25.802 C 90.495 25.692 89.99 25.637 89.29 25.637 Z M 110.89 34.217 L 110.41 39.257 C 109.13 39.777 107.51 40.037 105.55 40.037 C 103.03 40.037 101.225 39.547 100.135 38.567 C 99.045 37.587 98.5 36.077 98.5 34.037 C 98.5 33.177 98.64 31.907 98.92 30.227 C 99.52 26.787 100.555 24.287 102.025 22.727 C 103.495 21.167 105.82 20.387 109 20.387 C 109.74 20.387 110.585 20.462 111.535 20.612 C 112.485 20.762 113.18 20.947 113.62 21.167 L 111.94 25.757 C 110.76 25.477 109.655 25.337 108.625 25.337 C 107.595 25.337 106.86 25.437 106.42 25.637 C 105.98 25.837 105.71 26.237 105.61 26.837 L 104.23 34.697 C 104.95 34.857 105.69 34.937 106.45 34.937 C 108.07 34.937 109.55 34.697 110.89 34.217 Z M 117.25 39.587 L 111.25 39.587 L 119.14 20.837 L 127.96 20.837 L 129.28 39.587 L 123.25 39.587 L 123.13 36.617 L 118.42 36.617 Z M 122.38 26.597 L 120.28 31.847 L 122.68 31.847 L 122.68 26.597 Z M 131.259 39.587 L 134.559 20.837 L 142.539 20.837 C 145.119 20.837 146.954 21.292 148.044 22.202 C 149.134 23.112 149.679 24.587 149.679 26.627 C 149.679 27.667 149.559 28.867 149.319 30.227 C 148.719 33.587 147.694 35.987 146.244 37.427 C 144.794 38.867 142.459 39.587 139.239 39.587 Z M 141.759 25.637 L 139.389 25.637 L 137.799 34.787 L 140.169 34.787 C 140.949 34.787 141.529 34.692 141.909 34.502 C 142.289 34.312 142.539 33.877 142.659 33.197 L 143.709 27.227 C 143.729 27.107 143.739 26.947 143.739 26.747 C 143.739 26.287 143.579 25.987 143.259 25.847 C 142.939 25.707 142.439 25.637 141.759 25.637 Z M 163.239 32.507 L 157.539 32.507 L 157.149 34.787 L 164.139 34.787 L 163.299 39.587 L 150.609 39.587 L 153.909 20.837 L 166.449 20.837 L 164.889 25.637 L 158.739 25.637 L 158.319 28.157 L 164.019 28.157 Z" style="white-space: pre; fill: rgb(255, 255, 255);"/>
  <path style="fill-rule: evenodd; stroke-width: 0; stroke-miterlimit: 4; fill: rgb(255, 255, 255);" id="path5222" stroke-miterlimit="4" d="M 43.981 16.25 L 43.981 20 L 47.731 20 L 47.731 16.25 L 43.981 16.25 Z M 28.981 16.25 L 28.981 20 L 32.731 20 L 32.731 16.25 L 28.981 16.25 Z M 28.981 31.25 L 36.481 31.25 L 36.481 35 L 28.981 35 L 28.981 31.25 Z M 47.731 31.25 L 47.731 35 L 40.231 35 L 40.231 31.25 L 47.731 31.25 Z M 47.731 8.75 L 47.731 5 L 51.481 5 L 51.481 8.75 L 47.731 8.75 Z M 28.981 8.75 L 32.731 8.75 L 32.731 12.5 L 43.981 12.5 L 43.981 8.75 L 47.731 8.75 L 47.731 12.5 L 51.481 12.5 L 51.481 16.25 L 55.231 16.25 L 55.231 20 L 58.981 20 L 58.981 31.25 L 55.231 31.25 L 55.231 23.75 L 51.481 23.75 L 51.481 31.25 L 47.731 31.25 L 47.731 27.5 L 28.981 27.5 L 28.981 31.25 L 25.231 31.25 L 25.231 23.75 L 21.481 23.75 L 21.481 31.25 L 17.731 31.25 L 17.731 20 L 21.481 20 L 21.481 16.25 L 25.231 16.25 L 25.231 12.5 L 28.981 12.5 L 28.981 8.75 Z M 25.231 5 L 28.981 5 L 28.981 8.75 L 25.231 8.75 L 25.231 5 Z"/>
</svg>

<svg xmlns="http://www.w3.org/2000/svg" viewBox="0 0 200 40"><path d="M74.12 1.25h6.03L72.45 20H64.1L63 1.25h6.32v11.91h.27Zm17.4 11.67h-5.7l-.39 2.28h7l-.85 4.8H78.9l3.3-18.75h12.54l-1.56 4.8h-6.15l-.42 2.52h5.7ZM110.33 20h-6.27l-1.38-5.58h-1.23L100.5 20h-5.7l3.3-18.75h9q5.13 0 5.13 4.59 0 1.89-.57 3.6-1.05 3.24-3.3 4.32Zm-7.4-13.95-.67 3.75h1.32q1.02 0 1.55-.23.53-.22.72-1.28.2-1.07.2-1.31 0-.6-.47-.77a5 5 0 0 0-1.52-.16Zm24.86 0h-4.14L121.22 20h-5.7l2.43-13.95h-4.1l.86-4.8h13.95ZM127.52 20l3.3-18.75h5.7L133.22 20Zm22.14-5.37-.48 5.04q-1.92.78-4.86.78-3.78 0-5.41-1.47t-1.64-4.53q0-1.29.42-3.81.9-5.16 3.1-7.5T147.77.8q1.1 0 2.53.22 1.43.23 2.09.56l-1.68 4.59a14 14 0 0 0-3.31-.42q-1.55 0-2.21.3t-.81 1.2L143 15.11q1.08.24 2.22.24 2.43 0 4.44-.72m6.36 5.37h-6l7.89-18.75h8.82L168.05 20h-6.03l-.12-2.97h-4.71Zm5.13-12.99-2.1 5.25h2.4V7.01ZM181.43 20h-11.4l3.3-18.75h5.7l-2.46 13.95h5.7ZM66.01 39.59h-6l7.89-18.75h8.82l1.32 18.75h-6.03l-.12-2.97h-4.71Zm5.13-13-2.1 5.26h2.4V26.6Zm24.42 13h-6.27L87.91 34h-1.23l-.96 5.58h-5.7l3.3-18.75h9q5.13 0 5.13 4.59 0 1.89-.57 3.6-1.05 3.24-3.3 4.32Zm-7.41-13.95-.66 3.75h1.32q1.02 0 1.55-.23.51-.22.72-1.29.2-1.05.19-1.3 0-.6-.46-.77a5 5 0 0 0-1.52-.16Zm22.74 8.58-.48 5.04q-1.92.78-4.86.78-3.78 0-5.41-1.47-1.64-1.48-1.64-4.53 0-1.29.42-3.81.9-5.16 3.1-7.5 2.22-2.34 6.98-2.34 1.1 0 2.53.22 1.43.23 2.09.56l-1.68 4.59a14 14 0 0 0-3.31-.42q-1.55 0-2.21.3t-.81 1.2l-1.38 7.86q1.08.24 2.22.24 2.43 0 4.44-.72m6.36 5.37h-6l7.89-18.75h8.82l1.32 18.75h-6.03l-.12-2.97h-4.71Zm5.13-13-2.1 5.26h2.4V26.6Zm8.88 13 3.3-18.75h7.98q3.87 0 5.5 1.36 1.65 1.37 1.64 4.43 0 1.56-.36 3.6-.9 5.04-3.08 7.2-2.17 2.16-7 2.16Zm10.5-13.95h-2.37l-1.6 9.15h2.38q1.17 0 1.74-.29t.75-1.3l1.05-5.97q.03-.18.03-.48 0-.69-.48-.9a4 4 0 0 0-1.5-.21m21.48 6.87h-5.7l-.4 2.28h7l-.84 4.8h-12.7l3.3-18.75h12.55l-1.56 4.8h-6.15l-.42 2.52h5.7Z" style="white-space:pre;fill:#fff"/><path d="M43.98 16.25V20h3.75v-3.75zm-15 0V20h3.75v-3.75zm0 15h7.5V35h-7.5zm18.75 0V35h-7.5v-3.75zm0-22.5V5h3.75v3.75zm-18.75 0h3.75v3.75h11.25V8.75h3.75v3.75h3.75v3.75h3.75V20h3.75v11.25h-3.75v-7.5h-3.75v7.5h-3.75V27.5H28.98v3.75h-3.75v-7.5h-3.75v7.5h-3.75V20h3.75v-3.75h3.75V12.5h3.75zM25.23 5h3.75v3.75h-3.75z" style="fill-rule:evenodd;stroke-width:0;stroke-miterlimit:4;fill:#fff"/></svg>
